IndexPage/static/IndexPage/img/lighthouse.svg

<svg width="321" height="199" viewBox="0 0 321 199" fill="none" xmlns="http://www.w3.org/2000/svg">
<path d="M162.619 82.2127C172.32 82.2127 180.184 75.0268 180.184 66.1624C180.184 57.2981 172.32 50.1122 162.619 50.1122C152.918 50.1122 145.054 57.2981 145.054 66.1624C145.054 75.0268 152.918 82.2127 162.619 82.2127Z" fill="#78E7FF"/>
<path d="M193.661 213.189C193.661 213.189 156.259 228.179 129.76 213.492L130.005 209.252L132.289 169.883L134.448 132.635L137.028 88.1179H186.696L189.082 132.635L191.081 169.883L193.192 209.252L193.661 213.189Z" fill="#3F3D56"/>
<path d="M191.081 169.883H132.288L134.447 132.635H189.082L191.081 169.883Z" fill="#78E7FF"/>
<path d="M189.724 83.2725H133.999V89.3292H189.724V83.2725Z" fill="#3F3D56"/>
<path d="M189.724 62.9827H133.999V69.0394H189.724V62.9827Z" fill="#3F3D56"/>
<path d="M142.176 69.0393H138.845V84.7867H142.176V69.0393Z" fill="#3F3D56"/>
<path d="M150.959 69.0393H147.628V84.7867H150.959V69.0393Z" fill="#3F3D56"/>
<path d="M159.742 69.0393H156.41V84.7867H159.742V69.0393Z" fill="#3F3D56"/>
<path d="M168.525 69.0393H165.193V84.7867H168.525V69.0393Z" fill="#3F3D56"/>
<path d="M177.307 69.0393H173.976V84.7867H177.307V69.0393Z" fill="#3F3D56"/>
<path d="M150.959 44.964H147.628V65.7082H150.959V44.964Z" fill="#3F3D56"/>
<path d="M159.742 44.964H156.41V65.7082H159.742V44.964Z" fill="#3F3D56"/>
<path d="M168.525 44.964H165.193V65.7082H168.525V44.964Z" fill="#3F3D56"/>
<path d="M177.307 44.964H173.976V65.7082H177.307V44.964Z" fill="#3F3D56"/>
<path d="M186.089 69.0393H182.758V84.7867H186.089V69.0393Z" fill="#3F3D56"/>
<path d="M142.328 47.3867H138.997V65.8597H142.328V47.3867Z" fill="#3F3D56"/>
<path d="M186.242 47.3867H182.91V65.8597H186.242V47.3867Z" fill="#3F3D56"/>
<path d="M189.876 50.8691H134.151V32.699L162.014 10.1378L189.876 32.699V50.8691Z" fill="#3F3D56"/>
<path opacity="0.3" d="M162.619 112.707C188.493 112.707 209.469 91.7324 209.469 65.8594C209.469 39.9865 188.493 19.0123 162.619 19.0123C136.745 19.0123 115.77 39.9865 115.77 65.8594C115.77 91.7324 136.745 112.707 162.619 112.707Z" fill="#78E7FF"/>
<path opacity="0.1" d="M162.619 130.969C198.58 130.969 227.732 101.819 227.732 65.8595C227.732 29.9005 198.58 0.75 162.619 0.75C126.658 0.75 97.5059 29.9005 97.5059 65.8595C97.5059 101.819 126.658 130.969 162.619 130.969Z" fill="#78E7FF"/>
</svg>

<svg width="321" height="199" fill="none" xmlns="http://www.w3.org/2000/svg"><path d="M162.619 82.213c9.701 0 17.565-7.186 17.565-16.05 0-8.865-7.864-16.05-17.565-16.05s-17.565 7.185-17.565 16.05c0 8.864 7.864 16.05 17.565 16.05z" fill="#78E7FF"/><path d="M193.661 213.189s-37.402 14.99-63.901.303l.245-4.24 2.284-39.369 2.159-37.248 2.58-44.517h49.668l2.386 44.517 1.999 37.248 2.111 39.369.469 3.937z" fill="#3F3D56"/><path d="M191.081 169.883h-58.793l2.159-37.248h54.635l1.999 37.248z" fill="#78E7FF"/><path d="M189.724 83.272h-55.725v6.057h55.725v-6.056zM189.724 62.983h-55.725v6.056h55.725v-6.056z" fill="#3F3D56"/><path d="M142.176 69.04h-3.331v15.747h3.331V69.039zM150.959 69.04h-3.331v15.747h3.331V69.039zM159.742 69.04h-3.332v15.747h3.332V69.039zM168.525 69.04h-3.332v15.747h3.332V69.039zM177.307 69.04h-3.331v15.747h3.331V69.039zM150.959 44.964h-3.331v20.744h3.331V44.964zM159.742 44.964h-3.332v20.744h3.332V44.964zM168.525 44.964h-3.332v20.744h3.332V44.964zM177.307 44.964h-3.331v20.744h3.331V44.964zM186.089 69.04h-3.331v15.747h3.331V69.039zM142.328 47.387h-3.331V65.86h3.331V47.387zM186.242 47.387h-3.332V65.86h3.332V47.387z" fill="#3F3D56"/><path d="M189.876 50.87h-55.725V32.698l27.863-22.561 27.862 22.561v18.17z" fill="#3F3D56"/><path opacity=".3" d="M162.619 112.707c25.874 0 46.85-20.975 46.85-46.848 0-25.872-20.976-46.847-46.85-46.847-25.874 0-46.849 20.974-46.849 46.847s20.975 46.848 46.849 46.848z" fill="#78E7FF"/><path opacity=".1" d="M162.619 130.969c35.961 0 65.113-29.15 65.113-65.11C227.732 29.901 198.58.75 162.619.75S97.506 29.9 97.506 65.86c0 35.959 29.152 65.109 65.113 65.109z" fill="#78E7FF"/></svg>
